agir/front/components/genericComponents/logos/melenchon2022.svg

<svg width="473" height="62" viewBox="0 0 473 62" fill="none" xmlns="http://www.w3.org/2000/svg">
<g clip-path="url(#clip0)">
<path d="M10.6804 0.679633H5.00436L1.01709 33H7.91273L10.2113 13.6265L17.8105 29.2942H23.1113L30.6636 13.6265L32.9153 33H39.8109L35.8705 0.679633H30.1007L20.4375 21.5073L10.6804 0.679633Z" fill="#3F2682"/>
<path d="M67.4444 33V26.9487H53.4186V20.0531H65.3335V14.0956H53.4186V6.73091H67.0222V0.679633H46.5699V33H67.4444Z" fill="#3F2682"/>
<path d="M93.5339 33V26.9487H81.4314V0.679633H74.5357V33H93.5339Z" fill="#3F2682"/>
<path d="M120.307 33V26.9487H106.281V20.0531H118.196V14.0956H106.281V6.73091H119.885V0.679633H99.4324V33H120.307Z" fill="#3F2682"/>
<path d="M144.755 0.679633V20.0062L133.684 0.679633H127.398V33H134.247V13.4389L145.505 33H151.65V0.679633H144.755Z" fill="#3F2682"/>
<path d="M182.597 22.5393C180.767 25.2131 177.859 26.9956 174.528 26.9956C171.855 26.9956 169.65 26.0105 167.867 24.0873C166.085 22.1171 165.193 19.7247 165.193 16.9102C165.193 14.0487 166.085 11.6564 167.867 9.73309C169.65 7.7629 171.855 6.77781 174.528 6.77781C177.859 6.77781 180.486 8.18509 182.409 10.9996L187.991 7.15309C185.13 2.97818 180.157 0.304359 174.528 0.304359C169.931 0.304359 166.085 1.89927 162.942 5.136C159.846 8.37272 158.298 12.2662 158.298 16.9102C158.298 21.5073 159.846 25.4007 162.942 28.6375C166.085 31.8742 169.931 33.4691 174.528 33.4691C180.298 33.4691 185.271 30.7484 188.132 26.3858L182.597 22.5393Z" fill="#3F2682"/>
<path d="M212.253 13.8611H200.761V0.679633H193.912V33H200.761V20.0062H212.253V33H219.196V0.679633H212.253V13.8611Z" fill="#3F2682"/>
<path d="M251.806 16.9102C251.806 19.584 250.868 21.8825 248.991 23.8058C247.162 25.7291 244.91 26.6673 242.236 26.6673C239.563 26.6673 237.311 25.7291 235.482 23.8527C233.652 21.9295 232.714 19.6309 232.714 16.9102C232.714 14.1895 233.652 11.8909 235.482 9.96763C237.311 8.04436 239.563 7.10618 242.236 7.10618C244.91 7.10618 247.162 8.04436 248.991 9.96763C250.868 11.8909 251.806 14.1895 251.806 16.9102ZM225.865 16.9102C225.865 21.4604 227.46 25.4007 230.603 28.6375C233.793 31.8742 237.686 33.4691 242.236 33.4691C246.787 33.4691 250.68 31.8742 253.87 28.6375C257.06 25.4007 258.655 21.4604 258.655 16.9102C258.655 12.3131 257.06 8.41963 253.87 5.1829C250.727 1.94618 246.834 0.304359 242.236 0.304359C237.686 0.304359 233.793 1.94618 230.603 5.1829C227.46 8.41963 225.865 12.3131 225.865 16.9102Z" fill="#3F2682"/>
<path d="M282.684 0.679633V20.0062L271.613 0.679633H265.327V33H272.176V13.4389L283.434 33H289.579V0.679633H282.684Z" fill="#3F2682"/>
<path d="M316.679 26.808H307.204L314.287 18.7865C316.445 16.3473 317.524 13.7673 317.524 10.9996C317.524 8.27891 316.539 6.02727 314.568 4.29163C312.645 2.556 310.253 1.66472 307.485 1.66472C301.715 1.66472 297.681 5.32363 296.743 11.1873L302.747 12.2193C303.123 9.73309 304.811 7.95054 307.11 7.95054C309.502 7.95054 310.956 9.31091 310.956 10.9996C310.956 12.0785 310.394 13.2044 309.315 14.4709L296.696 29.4349V33H316.679V26.808Z" fill="#3F2682"/>
<path d="M323.662 17.6138C323.662 28.1684 327.508 33.4691 335.155 33.4691C339.47 33.4691 342.566 31.7804 344.208 28.7782C345.897 25.776 346.553 22.3047 346.553 17.6138C346.553 12.9229 345.897 9.35782 344.208 6.35563C342.566 3.35345 339.47 1.66472 335.155 1.66472C327.508 1.66472 323.662 6.96545 323.662 17.6138ZM330.229 17.6138C330.229 11.2342 331.871 8.04436 335.155 8.04436C338.391 8.04436 339.986 11.2342 339.986 17.6138C339.986 23.9465 338.391 27.0895 335.155 27.0895C331.871 27.0895 330.229 23.9465 330.229 17.6138Z" fill="#3F2682"/>
<path d="M372.565 26.808H363.09L370.173 18.7865C372.331 16.3473 373.41 13.7673 373.41 10.9996C373.41 8.27891 372.425 6.02727 370.454 4.29163C368.531 2.556 366.139 1.66472 363.371 1.66472C357.601 1.66472 353.567 5.32363 352.629 11.1873L358.633 12.2193C359.009 9.73309 360.697 7.95054 362.996 7.95054C365.388 7.95054 366.842 9.31091 366.842 10.9996C366.842 12.0785 366.28 13.2044 365.201 14.4709L352.582 29.4349V33H372.565V26.808Z" fill="#3F2682"/>
<path d="M399.203 26.808H389.727L396.81 18.7865C398.968 16.3473 400.047 13.7673 400.047 10.9996C400.047 8.27891 399.062 6.02727 397.092 4.29163C395.169 2.556 392.776 1.66472 390.009 1.66472C384.239 1.66472 380.205 5.32363 379.266 11.1873L385.271 12.2193C385.646 9.73309 387.335 7.95054 389.633 7.95054C392.026 7.95054 393.48 9.31091 393.48 10.9996C393.48 12.0785 392.917 13.2044 391.838 14.4709L379.219 29.4349V33H399.203V26.808Z" fill="#3F2682"/>
<path d="M414.066 29.5287C414.066 27.324 412.236 25.6353 409.985 25.6353C407.733 25.6353 405.951 27.2771 405.951 29.5287C405.951 31.7804 407.733 33.4691 409.985 33.4691C412.236 33.4691 414.066 31.7804 414.066 29.5287Z" fill="#3F2682"/>
<path d="M428.199 33V20.1H438.754V14.0956H428.199V6.73091H441.522V0.679633H421.304V33H428.199Z" fill="#3F2682"/>
<path d="M460.383 6.73091C462.776 6.73091 464.277 9.02945 464.277 11.2811C464.277 13.5796 462.682 15.8313 460.196 15.8313H454.379V6.73091H460.383ZM463.385 21.5542C468.639 20.4284 471.454 16.2065 471.454 11.2811C471.454 8.37272 470.516 5.88654 468.639 3.82254C466.81 1.71163 464.136 0.679633 460.712 0.679633H447.483V33H454.379V21.8356H455.927L463.151 33H471.407L463.385 21.5542Z" fill="#3F2682"/>
<rect y="54" width="473" height="7.81818" fill="#F53B3B"/>
</g>
<defs>
<clipPath id="clip0">
<rect width="473" height="61.5138" fill="white" transform="translate(0 0.304359)"/>
</clipPath>
</defs>
</svg>

<svg width="473" height="62" fill="none" xmlns="http://www.w3.org/2000/svg"><g clip-path="url(#a)"><path d="M10.68.68H5.004L1.017 33h6.896l2.298-19.373 7.6 15.667h5.3l7.553-15.668L32.915 33h6.896L35.87.68H30.1l-9.663 20.827L10.68.68ZM67.444 33v-6.051H53.42v-6.896h11.915v-5.957H53.419V6.73h13.603V.68H46.57V33h20.874Zm26.09 0v-6.051H81.43V.679h-6.895V33h18.998Zm26.773 0v-6.051h-14.026v-6.896h11.915v-5.957h-11.915V6.73h13.604V.68H99.432V33h20.875ZM144.755.68v19.326L133.684.68h-6.286V33h6.849V13.439L145.505 33h6.145V.68h-6.895Zm37.842 21.86c-1.83 2.673-4.738 4.456-8.069 4.456-2.673 0-4.878-.985-6.661-2.909-1.782-1.97-2.674-4.362-2.674-7.177 0-2.861.892-5.254 2.674-7.177 1.783-1.97 3.988-2.955 6.661-2.955 3.331 0 5.958 1.407 7.881 4.222l5.582-3.847C185.13 2.978 180.157.304 174.528.304c-4.597 0-8.443 1.595-11.586 4.832-3.096 3.237-4.644 7.13-4.644 11.774 0 4.597 1.548 8.49 4.644 11.727 3.143 3.237 6.989 4.832 11.586 4.832 5.77 0 10.743-2.72 13.604-7.083l-5.535-3.847Zm29.656-8.679h-11.492V.68h-6.849V33h6.849V20.006h11.492V33h6.943V.68h-6.943v13.18Zm39.553 3.049c0 2.674-.938 4.973-2.815 6.896-1.829 1.923-4.081 2.861-6.755 2.861-2.673 0-4.925-.938-6.754-2.814-1.83-1.924-2.768-4.222-2.768-6.943 0-2.72.938-5.02 2.768-6.942 1.829-1.924 4.081-2.862 6.754-2.862 2.674 0 4.926.938 6.755 2.862 1.877 1.923 2.815 4.222 2.815 6.942Zm-25.941 0c0 4.55 1.595 8.49 4.738 11.727 3.19 3.237 7.083 4.832 11.633 4.832 4.551 0 8.444-1.595 11.634-4.832 3.19-3.236 4.785-7.177 4.785-11.727 0-4.597-1.595-8.49-4.785-11.727-3.143-3.237-7.036-4.879-11.634-4.879-4.55 0-8.443 1.642-11.633 4.879-3.143 3.237-4.738 7.13-4.738 11.727ZM282.684.68v19.326L271.613.68h-6.286V33h6.849V13.439L283.434 33h6.145V.68h-6.895Zm33.995 26.128h-9.475l7.083-8.021c2.158-2.44 3.237-5.02 3.237-7.787 0-2.721-.985-4.973-2.956-6.708-1.923-1.736-4.315-2.627-7.083-2.627-5.77 0-9.804 3.659-10.742 9.522l6.004 1.032c.376-2.486 2.064-4.268 4.363-4.268 2.392 0 3.846 1.36 3.846 3.049 0 1.079-.562 2.204-1.641 3.47l-12.619 14.965V33h19.983v-6.192Zm6.983-9.194c0 10.554 3.846 15.855 11.493 15.855 4.315 0 7.411-1.689 9.053-4.69 1.689-3.003 2.345-6.474 2.345-11.165 0-4.691-.656-8.256-2.345-11.258-1.642-3.003-4.738-4.691-9.053-4.691-7.647 0-11.493 5.3-11.493 15.949Zm6.567 0c0-6.38 1.642-9.57 4.926-9.57 3.236 0 4.831 3.19 4.831 9.57 0 6.332-1.595 9.476-4.831 9.476-3.284 0-4.926-3.143-4.926-9.476Zm42.336 9.194h-9.475l7.083-8.021c2.158-2.44 3.237-5.02 3.237-7.787 0-2.721-.985-4.973-2.956-6.708-1.923-1.736-4.315-2.627-7.083-2.627-5.77 0-9.804 3.659-10.742 9.522l6.004 1.032c.376-2.486 2.064-4.268 4.363-4.268 2.392 0 3.846 1.36 3.846 3.049 0 1.079-.562 2.204-1.641 3.47l-12.619 14.965V33h19.983v-6.192Zm26.638 0h-9.476l7.083-8.021c2.158-2.44 3.237-5.02 3.237-7.787 0-2.721-.985-4.973-2.955-6.708-1.923-1.736-4.316-2.627-7.083-2.627-5.77 0-9.804 3.659-10.743 9.522l6.005 1.032c.375-2.486 2.064-4.268 4.362-4.268 2.393 0 3.847 1.36 3.847 3.049 0 1.079-.563 2.204-1.642 3.47l-12.619 14.965V33h19.984v-6.192Zm14.863 2.721c0-2.205-1.83-3.894-4.081-3.894-2.252 0-4.034 1.642-4.034 3.894 0 2.251 1.782 3.94 4.034 3.94 2.251 0 4.081-1.689 4.081-3.94ZM428.199 33V20.1h10.555v-6.004h-10.555V6.73h13.323V.68h-20.218V33h6.895Zm32.184-26.27c2.393 0 3.894 2.3 3.894 4.551 0 2.299-1.595 4.55-4.081 4.55h-5.817v-9.1h6.004Zm3.002 14.824c5.254-1.126 8.069-5.348 8.069-10.273 0-2.908-.938-5.394-2.815-7.458C466.81 1.712 464.136.68 460.712.68h-13.229V33h6.896V21.836h1.548L463.151 33h8.256l-8.022-11.446Z" fill="#3F2682"/><path fill="#F53B3B" d="M0 54h473v7.818H0z"/></g><defs><clipPath id="a"><path fill="#fff" transform="translate(0 .304)" d="M0 0h473v61.514H0z"/></clipPath></defs></svg>
